twotone/svg/table_chart.svg

<?xml version="1.0" encoding="utf-8"?>
<!-- Generator: Adobe Illustrator 19.1.0, SVG Export Plug-In . SVG Version: 6.00 Build 0)  -->
<svg version="1.1" xmlns="http://www.w3.org/2000/svg" xmlns:xlink="http://www.w3.org/1999/xlink" x="0px" y="0px" width="24px"
	 height="24px" viewBox="0 0 24 24" enable-background="new 0 0 24 24" xml:space="preserve">
<g id="Bounding_Boxes">
	<g id="ui_x5F_spec_x5F_header_copy_3">
	</g>
	<path fill="none" d="M0,0h24v24H0V0z"/>
</g>
<g id="Duotone" fill="currentColor">
	<g id="ui_x5F_spec_x5F_header_copy_2">
	</g>
	<g>
		<rect x="5" y="5" opacity="0.3" width="15" height="3"/>
		<rect x="17" y="10" opacity="0.3" width="3" height="9"/>
		<rect x="10" y="10" opacity="0.3" width="5" height="9"/>
		<rect x="5" y="10" opacity="0.3" width="3" height="9"/>
		<path d="M20,3H5C3.9,3,3,3.9,3,5v14c0,1.1,0.9,2,2,2h15c1.1,0,2-0.9,2-2V5C22,3.9,21.1,3,20,3z M8,19H5v-9h3V19z M15,19h-5v-9h5
			V19z M20,19h-3v-9h3V19z M20,8H5V5h15V8z"/>
	</g>
</g>
</svg>

<svg xmlns="http://www.w3.org/2000/svg" width="24" height="24"><path fill="none" d="M0 0h24v24H0V0z"/><g fill="currentColor"><path opacity=".3" d="M5 5h15v3H5zM17 10h3v9h-3zM10 10h5v9h-5zM5 10h3v9H5z"/><path d="M20 3H5c-1.1 0-2 .9-2 2v14c0 1.1.9 2 2 2h15c1.1 0 2-.9 2-2V5c0-1.1-.9-2-2-2zM8 19H5v-9h3v9zm7 0h-5v-9h5v9zm5 0h-3v-9h3v9zm0-11H5V5h15v3z"/></g></svg>
